img/svg/software-licenses/bitrix24.svg

<svg width="28" height="28" viewBox="0 0 28 28" fill="none" xmlns="http://www.w3.org/2000/svg">
<path d="M7.7105 5.8485C9.45959 4.34024 11.6904 3.50724 14 3.5C18.7075 3.5 22.6152 7 23.0405 11.5133C25.8265 11.907 28 14.2397 28 17.1027C28 20.2458 25.3785 22.75 22.2023 22.75H6.61675C2.989 22.75 0 19.8905 0 16.3065C0 13.2212 2.2155 10.6662 5.1485 10.0187C5.39875 8.5085 6.37 7.0035 7.7105 5.8485ZM8.85325 7.17325C7.5285 8.316 6.8355 9.69325 6.8355 10.7713V11.5553L6.05675 11.641C3.612 11.9087 1.75 13.916 1.75 16.3065C1.75 18.8737 3.9025 21 6.61675 21H22.2023C24.465 21 26.25 19.229 26.25 17.1027C26.25 14.9747 24.465 13.2038 22.2023 13.2038H21.3273V12.3288C21.329 8.44375 18.074 5.25 14 5.25C12.1098 5.25755 10.2845 5.93851 8.85325 7.17325Z" fill="#030303"/>
<path fill-rule="evenodd" clip-rule="evenodd" d="M8.85325 7.17325C7.5285 8.316 6.8355 9.69325 6.8355 10.7713V11.5553L6.05675 11.641C3.612 11.9087 1.75 13.916 1.75 16.3065C1.75 18.8737 3.9025 21 6.61675 21H22.2023C24.465 21 26.25 19.229 26.25 17.1027C26.25 14.9747 24.465 13.2038 22.2023 13.2038H21.3273V12.3288C21.3273 12.3267 21.3273 12.3246 21.3273 12.3225C21.3255 8.44032 18.0718 5.25 14 5.25C12.1098 5.25755 10.2845 5.93851 8.85325 7.17325ZM14 3.5C18.7075 3.5 22.6152 7 23.0405 11.5133C25.8265 11.907 28 14.2397 28 17.1027C28 20.2458 25.3785 22.75 22.2023 22.75H6.61675C2.989 22.75 0 19.8905 0 16.3065C0 13.2212 2.2155 10.6662 5.1485 10.0187C5.39875 8.5085 6.37 7.0035 7.7105 5.8485C9.45959 4.34024 11.6904 3.50724 14 3.5Z" fill="#030303"/>
<path d="M17.0663 11.2773L15.3121 15.239C15.2661 15.3507 15.2661 15.4394 15.3121 15.5051C15.3647 15.5642 15.4402 15.5938 15.5388 15.5938H19.5005V16.3723L18.6332 16.4906H14.711C14.527 16.4906 14.3693 16.4413 14.2379 16.3428C14.1131 16.2376 14.031 16.1062 13.9916 15.9486C13.9522 15.7843 13.9686 15.6201 14.0408 15.4558L15.8837 11.2773H17.0663ZM18.6431 12.588V18.0772H17.4999V13.6918L17.7069 12.588H18.6431Z" fill="#030303"/>
<path d="M10.7666 11.1602C11.22 11.1602 11.6109 11.1996 11.9394 11.2784C12.2679 11.3573 12.5208 11.5084 12.6982 11.7317C12.8821 11.9485 12.9741 12.2705 12.9741 12.6975C12.9741 12.9669 12.9413 13.2165 12.8756 13.4465C12.8099 13.6764 12.6916 13.9195 12.5208 14.1758C12.35 14.4254 12.1135 14.7112 11.8112 15.0331L9.95853 17.0238C10.1228 16.9975 10.2936 16.9811 10.471 16.9745C10.6549 16.968 10.8323 16.9647 11.0031 16.9647H13.1909V18.0783H8.5V17.3885C8.5 17.2833 8.51314 17.1914 8.53942 17.1125C8.5657 17.0271 8.61169 16.9483 8.67739 16.876L10.4808 14.8853C10.8947 14.4451 11.2068 14.0575 11.4171 13.7224C11.6273 13.3808 11.7291 13.0753 11.7226 12.8059C11.716 12.6285 11.67 12.5004 11.5846 12.4216C11.4992 12.3362 11.3776 12.2803 11.22 12.2541C11.0623 12.2278 10.8685 12.2146 10.6385 12.2146C10.4217 12.2146 10.2148 12.2179 10.0177 12.2245C9.82056 12.2311 9.61032 12.2442 9.38694 12.2639C9.17013 12.277 8.91391 12.3 8.61826 12.3329L8.55913 11.4065C8.87449 11.3343 9.15699 11.2817 9.40665 11.2489C9.65631 11.216 9.88954 11.193 10.1063 11.1799C10.3232 11.1667 10.5432 11.1602 10.7666 11.1602Z" fill="#030303"/>
</svg>

<svg width="28" height="28" fill="none" xmlns="http://www.w3.org/2000/svg"><path d="M7.71 5.848A9.677 9.677 0 0114 3.5c4.707 0 8.615 3.5 9.04 8.013 2.787.394 4.96 2.727 4.96 5.59 0 3.143-2.622 5.647-5.798 5.647H6.617C2.989 22.75 0 19.89 0 16.306c0-3.085 2.216-5.64 5.149-6.287.25-1.51 1.221-3.016 2.561-4.17zm1.143 1.325c-1.324 1.143-2.018 2.52-2.018 3.598v.784l-.778.086c-2.445.268-4.307 2.275-4.307 4.665C1.75 18.875 3.902 21 6.617 21h15.585c2.263 0 4.048-1.771 4.048-3.897 0-2.128-1.785-3.9-4.048-3.9h-.875v-.874C21.33 8.444 18.074 5.25 14 5.25a7.926 7.926 0 00-5.147 1.923z" fill="#030303"/><path fill-rule="evenodd" clip-rule="evenodd" d="M8.853 7.173c-1.324 1.143-2.018 2.52-2.018 3.598v.784l-.778.086c-2.445.268-4.307 2.275-4.307 4.665C1.75 18.875 3.902 21 6.617 21h15.585c2.263 0 4.048-1.771 4.048-3.897 0-2.128-1.785-3.9-4.048-3.9h-.875v-.881C21.325 8.44 18.072 5.25 14 5.25a7.926 7.926 0 00-5.147 1.923zM14 3.5c4.707 0 8.615 3.5 9.04 8.013 2.787.394 4.96 2.727 4.96 5.59 0 3.143-2.622 5.647-5.798 5.647H6.617C2.989 22.75 0 19.89 0 16.306c0-3.085 2.216-5.64 5.149-6.287.25-1.51 1.221-3.016 2.561-4.17A9.677 9.677 0 0114 3.5z" fill="#030303"/><path d="M17.066 11.277l-1.754 3.962c-.046.112-.046.2 0 .266.053.06.128.089.227.089H19.5v.778l-.867.119h-3.922a.766.766 0 01-.473-.148.738.738 0 01-.197-.887l1.843-4.179h1.182zm1.577 1.311v5.49H17.5v-4.386l.207-1.104h.936zm-7.876-1.428c.453 0 .844.04 1.172.118.329.08.582.23.76.454.183.216.275.539.275.966 0 .269-.033.518-.098.748-.066.23-.184.473-.355.73-.171.25-.408.535-.71.857l-1.852 1.99c.164-.026.335-.042.512-.049.184-.006.361-.01.532-.01h2.188v1.114H8.5v-.69c0-.105.013-.197.04-.276a.622.622 0 01.137-.236l1.804-1.99c.414-.44.726-.829.936-1.164.21-.341.312-.647.306-.916-.007-.177-.053-.306-.138-.384a.652.652 0 00-.365-.168 3.612 3.612 0 00-.582-.04c-.216 0-.423.004-.62.01-.197.007-.408.02-.631.04a15.36 15.36 0 00-.769.069l-.059-.927a9.238 9.238 0 012.208-.246z" fill="#030303"/></svg>
